X:1
T:Evans, 77.77
T:Evans, 77.77
T:Irving A. Steinel (1884-1945)
T:Public Domain Courtesy of the Cyber Hymnal™
C:Irving A. Steinel (1884-1945)
Z:Public Domain
Z:Courtesy of the Cyber Hymnal™
%%score ( 1 2 ) ( 3 4 )
L:1/8
Q:1/4=112
M:4/4
K:Db
V:1 treble 
V:2 treble 
V:3 bass 
V:4 bass 
V:1
 [DF]2 [DB]2 [DA]2 [DF]2 | [DE]2 [DF]2 G4 | [DF]2 [CF]2 [B,F]2 [B,E]2 | [A,D]2 [A,C]2 [A,D]4 | %4
 [CE]2 [EA]2 [Ed]2 [EB]2 | [Ee]2 [Ec]2 (c2 B2) | [CA]2 [=DA]2 [EA]2 [EG]2 | [DF]2 [CE]2 D4 |] %8
V:2
 x8 | x4 (D2 C2) | x8 | x8 | x8 | x4 E4 | x8 | x4 D4 |] %8
V:3
 [D,A,]2 [D,G,]2 [D,F,]2 [D,A,]2 | [G,B,]2 [F,B,]2 (B,2 A,2) | [D,A,]2 [D,A,]2 [G,,G,]2 [G,,G,]2 | %3
 [A,,F,]2 [A,,G,]2 [D,F,]4 | [A,,A,]2 [C,A,]2 [B,,=G,]2 G,2 | [C,A,]2 A,2 [G,A,]4 | %6
 [F,A,]2 [F,A,]2 [G,B,]2 [G,,B,]2 | [A,,A,]2 [A,,G,]2 [D,F,]4 |] %8
V:4
 x8 | x4 E,4 | x8 | x8 | x6 (E,D,) | x2 A,2 x4 | x8 | x8 |] %8

